COLOR/action 16/16/connector-orthogonal.svg

<svg height="16" width="16" xmlns="http://www.w3.org/2000/svg"><path d="m10.5.99999982c-1 0-1 1.00000008-1 1.00000008h-2.0000003v11.0000001h-.9999997c0-1-1-1-1-1h-4c-1 0-1 1-1 1v1c0 1 1 1 1 1h4c1 0 1-1 1-1h2.0000002v-11.0000001h.9999998c0 .9999999 1 .9999999 1 .9999999h4c1 0 1-.9999999 1-.9999999v-1c0-1.00000008-1-1.00000008-1-1.00000008z" fill="#c43ac4"/><path d="m10.5 1c-1 0-1 1-1 1h-2v.5h2s0-1 1-1h4s1-.0000001 1 1v-.5c0-1.00000008-1-1-1-1zm-9 11c-1 0-1 1-1 1v.5s0-1 1-1h4s1 0 1 1h1v-.5h-1c0-1-1-1-1-1z" fill="#fcf" opacity=".3"/><path d="m8.5 2.5v.5h1c0 .9999999 1 1 1 1h4c1 0 1-1 1-1v-.5s0 1-1 1h-4s-1-.0000001-1-1zm-8 11v.5c0 1 1 1 1 1h4c1 0 1-1 1-1h2v-.5h-2s0 1-1 1h-4s-1 0-1-1z" fill="#0d000d" opacity=".2"/></svg>

<?xml version="1.0" encoding="UTF-8" standalone="no"?>
<svg
   xmlns:dc="http://purl.org/dc/elements/1.1/"
   xmlns:cc="http://creativecommons.org/ns#"
   xmlns:rdf="http://www.w3.org/1999/02/22-rdf-syntax-ns#"
   xmlns:svg="http://www.w3.org/2000/svg"
   xmlns="http://www.w3.org/2000/svg"
   xmlns:sodipodi="http://sodipodi.sourceforge.net/DTD/sodipodi-0.dtd"
   xmlns:inkscape="http://www.inkscape.org/namespaces/inkscape"
   height="16"
   width="16"
   version="1.1"
   id="svg4"
   sodipodi:docname="connector-orthogonal.svg"
   inkscape:version="0.92.4 (5da689c313, 2019-01-14)">
  <metadata
     id="metadata10">
    <rdf:RDF>
      <cc:Work
         rdf:about="">
        <dc:format>image/svg+xml</dc:format>
        <dc:type
           rdf:resource="http://purl.org/dc/dcmitype/StillImage" />
        <dc:title></dc:title>
      </cc:Work>
    </rdf:RDF>
  </metadata>
  <defs
     id="defs8" />
  <sodipodi:namedview
     pagecolor="#ffffff"
     bordercolor="#666666"
     borderopacity="1"
     objecttolerance="10"
     gridtolerance="10"
     guidetolerance="10"
     inkscape:pageopacity="0"
     inkscape:pageshadow="2"
     inkscape:window-width="1920"
     inkscape:window-height="1016"
     id="namedview6"
     showgrid="false"
     inkscape:zoom="52.4375"
     inkscape:cx="8"
     inkscape:cy="8"
     inkscape:window-x="0"
     inkscape:window-y="27"
     inkscape:window-maximized="1"
     inkscape:current-layer="svg4" />
  <path
     d="m 10.5,0.99999982 c -1,0 -1,1.00000008 -1,1.00000008 H 7.4999997 V 13 H 6.5 c 0,-1 -1,-1 -1,-1 h -4 c -1,0 -1,1 -1,1 v 1 c 0,1 1,1 1,1 h 4 c 1,0 1,-1 1,-1 H 8.5000002 V 2.9999999 H 9.5 c 0,0.9999999 1,0.9999999 1,0.9999999 h 4 c 1,0 1,-0.9999999 1,-0.9999999 v -1 c 0,-1.00000008 -1,-1.00000008 -1,-1.00000008 z"
     id="path2"
     inkscape:connector-curvature="0"
     style="fill:#c43ac4;stroke-width:0.99999976" />
  <path
     style="fill:#ffccff;stroke-width:0.99999976;fill-opacity:1;opacity:0.3"
     d="M 10.5 1 C 9.5 1 9.5 2 9.5 2 L 7.5 2 L 7.5 2.5 L 9.5 2.5 C 9.5 2.5 9.5 1.5 10.5 1.5 L 14.5 1.5 C 14.5 1.5 15.5 1.4999999 15.5 2.5 L 15.5 2 C 15.5 0.99999992 14.5 1 14.5 1 L 10.5 1 z M 1.5 12 C 0.5 12 0.5 13 0.5 13 L 0.5 13.5 C 0.5 13.5 0.5 12.5 1.5 12.5 L 5.5 12.5 C 5.5 12.5 6.5 12.5 6.5 13.5 L 7.5 13.5 L 7.5 13 L 6.5 13 C 6.5 12 5.5 12 5.5 12 L 1.5 12 z "
     id="path817" />
  <path
     style="fill:#0d000d;stroke-width:0.99999976;fill-opacity:1;opacity:0.2"
     d="M 8.5 2.5 L 8.5 3 L 9.5 3 C 9.5 3.9999999 10.5 4 10.5 4 L 14.5 4 C 15.5 4 15.5 3 15.5 3 L 15.5 2.5 C 15.5 2.5 15.5 3.5 14.5 3.5 L 10.5 3.5 C 10.5 3.5 9.5 3.4999999 9.5 2.5 L 8.5 2.5 z M 0.5 13.5 L 0.5 14 C 0.5 15 1.5 15 1.5 15 L 5.5 15 C 6.5 15 6.5 14 6.5 14 L 8.5 14 L 8.5 13.5 L 6.5 13.5 C 6.5 13.5 6.5 14.5 5.5 14.5 L 1.5 14.5 C 1.5 14.5 0.5 14.5 0.5 13.5 z "
     id="path822" />
</svg>
